src/dark/hiso font dark_2710.svg

<svg xmlns="http://www.w3.org/2000/svg" width="72" height="126" viewBox="0 0 72 126"><path fill="#000101" d="M27 0l-27 13.5v63.37l27 45.13 27-45.13v-63.37l-27-13.5zm0 3.35l21.969 10.99-21.969 10.98-21.97-10.98 21.97-10.99zm-1.5 24.57v12.97l-22.5-11.25v-12.97l22.5 11.25zm0 19.68v38.661l-22.5-11.25v-38.661l22.5 11.25zm-20.51 31.761l20.51 10.26v14.939l-7.762-3.881-12.748-21.318zm31.269 21.319l-7.759 3.881v-14.94l20.51-10.261-12.751 21.32zm-7.759-53.08v-6.71l22.5-11.25v6.71l-22.5 11.25z"/></svg>

<svg xmlns="http://www.w3.org/2000/svg" width="72" height="126"><path fill="#000101" d="M27 0L0 13.5v63.37L27 122l27-45.13V13.5L27 0zm0 3.35l21.969 10.99L27 25.32 5.03 14.34 27 3.35zm-1.5 24.57v12.97L3 29.64V16.67l22.5 11.25zm0 19.68v38.661L3 75.011V36.35L25.5 47.6zM4.99 79.361l20.51 10.26v14.939l-7.762-3.881L4.99 79.361zm31.269 21.319l-7.759 3.881v-14.94L49.01 79.36l-12.751 21.32zM28.5 47.6v-6.71L51 29.64v6.71L28.5 47.6z"/></svg>
